X:1
T:Canon in G Major
T:The Wedding Song
%%score { 1 | 2 }
L:1/8
M:4/4
K:G
V:1 treble nm="Piano" snm="Pno."
V:2 bass 
V:1
 x8 | x8 | x8 | x8 | BBBB AAAA | GGGG FFFF | EEEE DDDD | EEEE FFFF | x BdB x AdA | x GBG x FBF | %10
 x EGE x DGD | x EGE x FAF | GF G2 D2 F2 | G2 B2 d3 e | cBAc BAGF | E2 G2 G3 F | x8 | x8 | x8 | %19
 x8 | x8 | x8 | x8 | x8 | x8 | x8 | x8 | x8 | x8 | x8 | x8 | x8 | x8 | x8 | x8 | x8 | x8 | x8 | %38
 x8 | x8 |] %40
V:2
 [G,,G,]4 [D,,D,]4 | [E,,E,]4 [B,,,B,,]4 | [C,,C,]4 [G,,G,]4 | [C,,C,]4 [D,,D,]4 | %4
 [G,,G,]4 [D,,D,]4 | [E,,E,]4 [B,,,B,,]4 | [C,,C,]4 [G,,G,]4 | [C,,C,]4 [D,,D,]4 | %8
 [G,B,]B,B,B, [D,A,]A,A,A, | [E,G,]G,G,G, [B,,F,]F,F,F, | [C,E,]E,E,E, [D,G,][D,D,]D,D, | %11
 [C,E,]E,E,E, [D,F,]F,F,F, | [G,B,]B,[B,D]B, [D,A,]A,[A,D]A, | [E,G,]G,[G,C]G, [B,,F,]F,[F,C]F, | %14
 [C,E,]E,[E,G,]E, [D,G,]D,[D,G,]D, | [C,E,]E,[E,G,]E, [E,F,]F,[F,A,]F, | x8 | x8 | x8 | x8 | x8 | %21
 x8 | x8 | x8 | x8 | x8 | x8 | x8 | x8 | x8 | x8 | x8 | x8 | x8 | x8 | x8 | x8 | x8 | x8 | x8 |] %40

